X: 218
T: When First I Met Thee
B: O'Neill's 218
N: "With spirit"
Z: 1997 by John Chambers <jc@trillian.mit.edu>
M: 2/4
L: 1/8
K:F
F \
|AG GG|GF FF|GF GA|cB A z/A/ \
|GG GF GA Bc|de fd|cA F||
||c \
|cf fe|fe edc|cf fe|ed cc \
|cf fc|dc BA|Gd cB|BA AGF|
|F2 FF|AGF FF|GF GA|cB A2 \
|G2 GG GA HBc|de fd|cA F2||
